X:1
T:Title
%%score { ( 1 4 ) | ( 2 3 ) }
L:1/8
M:6/8
K:F
V:1 treble nm="Grand Piano"
V:4 treble 
V:2 bass 
V:3 bass 
V:1
 z3 z2[Q:1/4=100] F | A2 A AGF | c3 c2 d | c2 A AGF |[M:5/8] [EG]-[EG]- [EG]3 |[M:1/8] [GB] | %6
[M:3/4] A2 AA GF | c3 c2 A | G2 GG A=B |[M:5/8] [Ec]-[Ec]- [Ec]3 |[M:1/8] [Ec] | %11
[M:3/4] [EG]2 [EG][GB] [FA][EG] | [FA]3 [Fc]2 [Ac] | [GB]2 [GB][Bd] [Ac][CGB] | %14
[M:5/8] [CFA]-[CFA]- [CFA]3 |[M:1/8] [CAc] |[M:3/4] [CAc]2 [CFA]A Bc |[M:7/8] d3 f3 [Fd] | %18
[M:3/4] [CFc]2 [DGB] [CFA]2 [B,CG] |[M:5/8] [F,A,CF]-[F,A,CF]- [F,A,CF]3 |] %20
V:2
 z3 z2 [F,A,C] | z3 .C3 | [F,A,F]3 [F,A,F]2 [F,B,F] | z3 .C3 |[M:5/8] [C,C]-[C,C]- [C,C]3 | %5
[M:1/8] [C,C] |[M:3/4] z2 z C z2 | [F,A,F]3 [F,A,F]2 [F,CF] | [G,CE]2 [G,CE] [G,DF]2 [G,DF] | %9
[M:5/8][K:bass] [C,C]-[C,C]- [C,C]3 |[M:1/8] [C,C] |[M:3/4] [C,C]2 [C,C] [C,C]2 [C,C] | %12
 [F,C]3 [F,A,]2 [F,C] | z2 z .C3 |[M:5/8] F,-F,- F,3 |[M:1/8] F, | %16
[M:3/4] F,2 F,F, G,[K:treble][A,CF] |[M:7/8] [B,F]3 [B,DF]3[K:bass] [B,,B,] | %18
[M:3/4] A,,2 B,, C,2 C, |[M:5/8] F,,-F,,- F,,3 |] %20
V:3
 x6 | [F,CF]2 [F,CF] [F,F]-[F,B,F][F,A,] | x6 | [F,A,F]2 [F,CF] [F,F]-[F,B,F][F,A,] |[M:5/8] x5 | %5
[M:1/8] x |[M:3/4] [F,CF]2 [F,CF][F,F]- [F,B,F][F,A,] | x6 | x6 |[M:5/8][K:bass] x5 |[M:1/8] x | %11
[M:3/4] x6 | x6 | [C,C]2 [C,C]C, D,E, |[M:5/8] x5 |[M:1/8] x |[M:3/4] x5[K:treble] x | %17
[M:7/8] x6[K:bass] x |[M:3/4] x6 |[M:5/8] x5 |] %20
V:4
 x6 | x6 | x6 | x6 |[M:5/8] x5 |[M:1/8] x |[M:3/4] x6 | x6 | x6 |[M:5/8] x5 |[M:1/8] x | %11
[M:3/4] x6 | x6 | x6 |[M:5/8] x5 |[M:1/8] x |[M:3/4] z2 z .[CF]3 |[M:7/8] x7 |[M:3/4] x6 | %19
[M:5/8] x5 |] %20

